!!!!SEGMENT: pl-kk--kk-i-7--057-002_cadeac-pierre--missa-ad-placitum-et-in-terra.krn
!!!cenid: 16xx:892
!!!COM: Cadéac, Pierre
!!!COM-rismid: pe30006011
!!!CDT: ~1500-~1599
!!!CNT: German
!!!OPR: Missa ad Placitum
!!!OTL: Et in terra
!!!OMV: 002
!!!PDT:
!!!AGN: Sacred; Mass
!!!SMS-siglum: PL-Kk
!!!SMS-shelfmark: Kk.I.7
!!!SMS-shelfwork: 057-002 M
!!!SMS-variant:
!!!SMS-altvar:
!!!NIFC-rismid: 300258134
!!!URL-scan: http://repozytorium.nifc.pl/skany/pl-kk-nut--i-7
!!!ONB-nifc: UWAGA: C (skan 0055-0056, s.103-104), A (0139-0140, s.99-101), T(0216-0217, s.95-96), B(0303, s.92-93). Części Mszy: 1. Kyrie, 2. Et in terra, 3. Sanctus
!!!AIN: 1 alto 1 bass 1 soprn 1 tenor
!!!key:
**kern	**text	**fba	**kern	**text	**kern	**text	**kern	**text
*part4	*part4	*	*part3	*part3	*part2	*part2	*part1	*part1
*staff4	*staff4	*	*staff3	*staff3	*staff2	*staff2	*staff1	*staff1
*Ibass	*	*	*Itenor	*	*Ialto	*	*Isoprn	*
*I"BASSVS.	*	*	*I"TENOR.	*	*I"ALTVS.	*	*I"CANTVS.	*
*I'B	*	*	*I'T	*	*I'A	*	*I'S	*
*clefF4	*	*	*clefC4	*	*clefC3	*	*clefC1	*
*k[]	*	*	*k[]	*	*k[]	*	*k[]	*
*C:	*	*	*C:	*	*C:	*	*C:	*
*M2/1	*	*	*M2/1	*	*M2/1	*	*M2/1	*
*met(c|)	*	*	*met(c|)	*	*met(c|)	*	*met(c|)	*
=1	=1	=1	=1	=1	=1	=1	=1	=1
!LO:TX:t=P:problem=przed kluczem inicjał E	!	!	!	!	!LO:TX:t=P:problem=przed kluczem inicjał E	!	!LO:TX:t=P:problem=przed kluczem inicjał E	!
!	!	!	!LO:TX:t=P:problem=przed kluczem inicjał E	!	!	!	!	!
00r	.	.	00r	.	1r	.	1.g\	Et
.	.	.	.	.	1.G/	Et	.	.
*	*	*	*	*	*	*	*2\right	*
.	.	.	.	.	.	.	2g\	in
=2-	=2-	=2-	=2-	=2-	=2-	=2-	=2-	=2-
.	.	.	.	.	.	.	1e/	ter-
.	.	.	.	.	2A/	in	.	.
!	!	!	!	!	!	!	!LO:TX:t=P:problem=kreska pseudotaktowa	!
.	.	.	.	.	2B/	ter-	1d/	-ra
!	!	!	!	!	!LO:TX:t=P:problem=kreska pseudotaktowa	!	!	!
.	.	.	.	.	2G/	-ra	.	.
=3-	=3-	=3-	=3-	=3-	=3-	=3-	=3-	=3-
*	*	*	*	*	*2\right	*	*	*
!	!	!	!LO:TX:t=P:problem=kreska pseudotaktowa	!	!	!	!	!
00r	.	.	1r	.	2.c\	pax	2.e/	pax
.	.	.	.	.	4d\	.	4f/	.
.	.	.	1.G/	Et	2e\	.	2.g\	.
.	.	.	.	.	2.d\	.	.	.
.	.	.	.	.	.	.	4f/	.
=4-	=4-	=4-	=4-	=4-	=4-	=4-	=4-	=4-
.	.	.	.	.	.	.	4g\	.
.	.	.	.	.	4c/	.	4a\	.
.	.	.	2G/	in	4B/	.	2.b\	.
.	.	.	.	.	4A/	.	.	.
.	.	.	1E/	ter-	1G/,<	.	.	.
.	.	.	.	.	.	.	4a\	.
.	.	.	.	.	.	.	1g\	.
=5-	=5-	=5-	=5-	=5-	=5-	=5-	=5-	=5-
!LO:TX:t=P:problem=kreska pseudotaktowa	!	!	!LO:TX:t=P:problem=kreska pseudotaktowa	!	!	!	!	!
0r	.	.	1D/	-ra	1A/	ho-	.	.
.	.	.	.	.	.	.	2f/	.
!	!	!	!	!	!	!	!LO:TX:t=P:problem=kreska pseudotaktowa	!
.	.	.	2.E/	pax	2G/	-mi-	0.g\	.
.	.	.	.	.	2.B/	-ni-	.	.
.	.	.	4F/	.	.	.	.	.
=6-	=6-	=6-	=6-	=6-	=6-	=6-	=6-	=6-
1.G\	Et	.	4G/	.	.	.	.	.
.	.	.	4A/	.	4c/	.	.	.
*	*	*	*2\right	*	*	*	*	*
!	!	!	!	!	!LO:TX:t=P:problem=kreska pseudotaktowa	!	!	!
.	.	.	2.B\	.	2d\	-bus	.	.
.	.	.	.	.	2B/	.	.	.
.	.	.	4c\	.	.	.	.	.
*2\right	*	*	*	*	*	*	*	*
!LO:TX:t=P:problem=kreska pseudotaktowa	!	!	!	!	!	!	!	!
2F\	in	.	2d\	.	2G/	bo-	.	.
=7-	=7-	=7-	=7-	=7-	=7-	=7-	=7-	=7-
*	*	*	*lig	*	*	*	*	*
1E\	ter-	.	1G/	.	2B/	-nae	2r	.
.	.	.	.	.	2c/	.	1g\	ho-
!LO:TX:t=P:problem=kreska pseudotaktowa	!	!	!	!	!	!	!	!
1D\	-ra	.	1A\	.	1d\	Vo-	.	.
.	.	.	.	.	.	.	2f/	.
*	*	*	*Xlig	*	*	*	*	*
=8-	=8-	=8-	=8-	=8-	=8-	=8-	=8-	=8-
(2.E\	pax	.	2G,</	.	2B/	.	2g\	.
.	.	.	1c\	ho-	1e\	-lun-	2.g\	.
!LO:TX:t=P:problem=kreska pseudotaktowa	!	!	!	!	!	!	!	!
4F\	.	.	.	.	.	.	.	.
1G\)	.	.	.	.	.	.	.	.
.	.	.	.	.	.	.	4a\	.
!	!	!	!	!	!	!	!LO:TX:t=P:problem=kreska pseudotaktowa	!
.	.	.	2B\	-mi-	2d\	.	2b\	.
=9-	=9-	=9-	=9-	=9-	=9-	=9-	=9-	=9-
!LO:TX:t=P:problem=kreska pseudotaktowa	!	!	!	!	!	!	!	!
1C/	ho-	.	1c\	.	1e\	-ta-	2a\	.
.	.	.	.	.	.	.	1g\	-mi-
!	!	!	!	!	!LO:TX:t=P:problem=kreska pseudotaktowa	!	!	!
2D\	-mi-	.	2.A\	.	1d\	-tis,	.	.
2D\	-ni-	.	.	.	.	.	2f/	-ni-
.	.	.	4A\	-ni-	.	.	.	.
=10-	=10-	=10-	=10-	=10-	=10-	=10-	=10-	=10-
!LO:TX:t=P:problem=kreska pseudotaktowa	!	!	!LO:TX:t=P:problem=kreska pseudotaktowa	!	!	!	!LO:TX:t=P:problem=kreska pseudotaktowa	!
1GG/,<	-b(us)	.	0G/	-bus	2re	.	1g\	-bus
.	.	.	.	.	1g\	bo-	.	.
1C/	bo-	.	.	.	.	.	2r	.
.	.	.	.	.	2e\	-nae	1cc\	bo-
=11-	=11-	=11-	=11-	=11-	=11-	=11-	=11-	=11-
2AA/	-nae	.	2r	.	2c\	vo-	.	.
!LO:TX:t=P:problem=kreska pseudotaktowa	!	!	!	!	!	!	!	!
2GG/	Vo-	.	1G/	bo-	2d\	.	2b\	-nae
1C/	-lun-	.	.	.	1e\	-lun-	2g\	Vo-
!	!	!	!LO:TX:t=P:problem=kreska pseudotaktowa	!	!	!	!	!
.	.	.	2E/	-nae	.	.	2.a\	-lun-
=12-	=12-	=12-	=12-	=12-	=12-	=12-	=12-	=12-
2D\	.	.	2F/	Vo-	2d\	-ta-	.	.
.	.	.	.	.	.	.	4g/	.
2E\	-ta-	.	2G/	-lun-	2c\	.	1g\	-ta-
!	!	!	!	!	!LO:TX:t=P:problem=kreska pseudotaktowa	!	!	!
1D\	.	.	1A\	-ta-	0d\	-tis	.	.
.	.	.	.	.	.	.	2f/	.
=13-	=13-	=13-	=13-	=13-	=13-	=13-	=13-	=13-
!LO:TX:t=P:problem=kreska pseudotaktowa	!	!	!LO:TX:t=P:problem=kreska pseudotaktowa	!	!	!	!LO:TX:t=P:problem=kreska pseudotaktowa	!
1GG/	-tis.	.	1G/	-tis.	.	.	1g\	-tis.
2rBB	.	.	2r	.	2r	.	2r	.
!LO:TX:t=P:problem=kreska pseudotaktowa	!	!	!	!	!	!	!	!
2C/	Lau-	.	2G/	Lau-	2c/	Lau-	2e/	Lau-
=14-	=14-	=14-	=14-	=14-	=14-	=14-	=14-	=14-
2D/	-da-	.	2F/	-da-	2A/	-da-	2f/	-da-
2D/	-m(us)	.	2F/	-m(us)	2B/	.	2d/	m(us)
!LO:TX:t=P:problem=kreska pseudotaktowa	!	!	!LO:TX:t=P:problem=kreska pseudotaktowa	!	!LO:TX:t=P:problem=kreska pseudotaktowa	!	!LO:TX:t=P:problem=kreska pseudotaktowa	!
1C/	Te	.	1G/,<	Te	1c\	-m(us)	1e/	Te
=15-	=15-	=15-	=15-	=15-	=15-	=15-	=15-	=15-
!LO:TX:t=P:problem=kreska pseudotaktowa	!	!	!	!	!	!	!	!
00r	.	.	1G/	be-	1d\	Te	1b\	be-
.	.	.	2G/	-ne-	2d\	be-	2b\	-ne-
*	*	*	*	*	*custos:c	*	*	*
!	!	!	!	!	!LO:TX:t=P:problem=kreska pseudotaktowa	!	!	!
.	.	.	2G/	-di-	2d\	-ne-	2b\	-di-
=16-	=16-	=16-	=16-	=16-	=16-	=16-	=16-	=16-
!	!	!	!	!	!LO:LB:g=original	!	!	!
.	.	.	2A\	-ci-	2c\	-di-	2cc\	-ci-
.	.	.	2A\	-m(us)	2c\	-ci-	2a\	-m(us)
*	*	*	*custos:C	*	*	*	*	*
!	!	!	!LO:TX:t=P:problem=kreska pseudotaktowa	!	!	!	!LO:TX:t=P:problem=kreska pseudotaktowa	!
.	.	.	0G/	Te,	2d\	-mus	1b\	Te,
.	.	.	.	.	1d\	Te	.	.
=17-	=17-	=17-	=17-	=17-	=17-	=17-	=17-	=17-
!	!	!	!	!	!	!	!LO:LB:g=original	!
1G\	a-	.	.	.	.	.	2r	.
.	.	.	.	.	2B/	a-	1g\	a-
!	!	!	!LO:LB:g=original	!	!	!	!	!
2E\	-do-	.	2r	.	1G/	-do-	.	.
!LO:TX:t=P:problem=kreska pseudotaktowa	!	!	!	!	!	!	!	!
2C/	-ra-	.	1c\	a-	.	.	2e/	-do-
=18-	=18-	=18-	=18-	=18-	=18-	=18-	=18-	=18-
*lig	*	*	*	*	*	*	*	*
1F\	.	.	.	.	1.A/	-ra-	2c/	-ra-
.	.	.	2A\	-do-	.	.	2.f/	-m(us)
1D\	.	.	1d\	-ra-	.	.	.	.
.	.	.	.	.	.	.	4g\	.
.	.	.	.	.	1d\	.	2a\	.
*Xlig	*	*	*	*	*	*	*	*
=19-	=19-	=19-	=19-	=19-	=19-	=19-	=19-	=19-
!	!	!	!	!	!	!	!LO:TX:t=P:problem=kreska pseudotaktowa	!
2.E\	.	.	2B\	.	.	.	1g\	Te.
.	.	.	2G/	.	2c\	m(us)	.	.
4E\	-mus	.	.	.	.	.	.	.
!LO:TX:t=P:problem=kreska pseudotaktowa	!	!	!	!	!LO:TX:t=P:problem=kreska pseudotaktowa	!	!	!
1D\	Te.	.	2A\	-m(us)	1d\	-Te.	2r	.
.	.	.	2F/	.	.	.	1dd\	glo-
=20-	=20-	=20-	=20-	=20-	=20-	=20-	=20-	=20-
(2BB/	glo-	.	2D,</	Te	2r	.	.	.
2GG/)	.	.	1G/	glo-	1g\	glo-	2b\	-ri-
2C/	-ri-	.	.	.	.	.	2g\	-fi-
!LO:TX:t=P:problem=kreska pseudotaktowa	!	!	!LO:TX:t=P:problem=kreska pseudotaktowa	!	!	!	!	!
2C/	-fi-	.	2G/	-ri-	2e\	-ri-	2cc\	-ca-
=21-	=21-	=21-	=21-	=21-	=21-	=21-	=21-	=21-
!LO:LB:g=original	!	!	!	!	!	!	!	!
2GG/	-ca-	.	2.G/	-fi-	2d\	-fi-	2.b\	.
1G\	.	.	.	.	2.d\	-ca-	.	.
.	.	.	4A\	.	.	.	4a\	.
.	.	.	2B\	-ca-	.	.	2g\	.
.	.	.	.	.	4e\	.	.	.
!LO:TX:t=P:problem=kreska pseudotaktowa	!	!	!	!	!	!	!	!
2F\	.	.	2c\	.	2.f\	.	2.a\	.
=22-	=22-	=22-	=22-	=22-	=22-	=22-	=22-	=22-
2D\	.	.	2d\	.	.	.	.	.
.	.	.	.	.	4e\	.	4g/	.
!LO:TX:t=P:problem=kreska pseudotaktowa	!	!	!	!	!	!	!	!
2E\	.	.	2G/	.	2c\	.	1g\	.
2.D\	.	.	2.A\	.	2d\	.	.	.
!	!	!	!	!	!	!	!LO:TX:t=P:problem=♯above	!
.	.	.	.	.	2d\	-m(us)	2f#X/	-mus
4D\	-m(us)	.	4A\	-mus	.	.	.	.
=23-	=23-	=23-	=23-	=23-	=23-	=23-	=23-	=23-
!LO:TX:a:t=4	!	!	!LO:TX:t=P:problem=kreska pseudotaktowa	!	!LO:TX:t=P:problem=kreska pseudotaktowa	!	!LO:TX:t=P:problem=kreska pseudotaktowa	!
!LO:TX:t=P:problem=kreska pseudotaktowa	!	!	!	!	!	!	!	!
00GG/	Te.	.	1G/,<	Te.	1d\	Te.	1g\	Te.
.	.	.	1G/	Gra-	2r	.	2r	.
.	.	.	.	.	1d\	Gra-	2b\	Gra-
=24-	=24-	=24-	=24-	=24-	=24-	=24-	=24-	=24-
.	.	.	2G/	-ti-	.	.	2b\	-ti-
!	!	!	!	!	!LO:TX:t=P:problem=kreska pseudotaktowa	!	!	!
.	.	.	2G/	-as	2d\	-ti-	2b\	-as
!	!	!	!	!	!	!	!LO:TX:t=P:problem=kreska pseudotaktowa	!
.	.	.	1G/	a-	2d\	-as	1b\	a-
.	.	.	.	.	1d\	a-	.	.
=25-	=25-	=25-	=25-	=25-	=25-	=25-	=25-	=25-
00r	.	.	1F/	-gi-	.	.	2a\	-gi-
.	.	.	.	.	1c\	-gi-	2a\	-m(us)
*	*	*	*lig	*	*	*	*	*
.	.	.	1A\	-m(us)	.	.	2a\	Ti-
*	*	*	*	*	*lig	*	*	*
.	.	.	.	.	1e\	-m(us)	8a\L	.
.	.	.	.	.	.	.	8b\	.
.	.	.	.	.	.	.	8cc\	.
.	.	.	.	.	.	.	8a\J	.
=26-	=26-	=26-	=26-	=26-	=26-	=26-	=26-	=26-
.	.	.	1G/	.	.	.	1b\	.
.	.	.	.	.	1d\	.	.	.
*	*	*	*Xlig	*	*Xlig	*	*	*
!	!	!	!	!	!	!	!LO:TX:t=P:problem=kreska pseudotaktowa	!
.	.	.	0F/	Ti-	.	.	0a\	.
!	!	!	!	!	!LO:TX:t=P::problem=kreska pseudotaktowa&colon;między nutą a kropką, ligatura	!	!	!
.	.	.	.	.	2.c/	Ti-	.	.
=27-	=27-	=27-	=27-	=27-	=27-	=27-	=27-	=27-
00r	.	.	.	.	.	.	.	.
.	.	.	.	.	4B/	.	.	.
.	.	.	.	.	4c/	.	.	.
.	.	.	.	.	4d/	.	.	.
!	!	!	!LO:TX:t=P:problem=kreska pseudotaktowa	!	!	!	!	!
.	.	.	1E/,<	-bi	2e\	.	2g,</	-bi.
.	.	.	.	.	4d/	.	1e/	pro-
.	.	.	.	.	4c/	.	.	.
=28-	=28-	=28-	=28-	=28-	=28-	=28-	=28-	=28-
!	!	!	!	!	!LO:TX:t=P:problem=kreska pseudotaktowa	!	!	!
.	.	.	1.E/	pro-	1B/	-bi	.	.
.	.	.	.	.	.	.	2e/	-pter
.	.	.	.	.	2r	.	1g\	ma-
.	.	.	2E/	-pter	1B/	pro-	.	.
=29-	=29-	=29-	=29-	=29-	=29-	=29-	=29-	=29-
!	!	!	!	!	!	!	!LO:TX:t=P:problem=kreska pseudotaktowa	!
00rG	.	.	1G/	ma-	.	.	1d/	-gn(am)
.	.	.	.	.	2B/	-pter	.	.
!	!	!	!LO:TX:t=P:problem=kreska pseudotaktowa	!	!LO:SIC:v:s=1d	!	!	!
.	.	.	1D/	.	1c\	ma-	2.fny/	glo-
.	.	.	.	.	.	.	4g/	.
=30-	=30-	=30-	=30-	=30-	=30-	=30-	=30-	=30-
!	!	!	!	!	!LO:TX:t=P:problem=kreska pseudotaktowa	!	!	!
.	.	.	2.F/	-gnam	1A/	-gnam	4a\	.
.	.	.	.	.	.	.	4b\	.
.	.	.	.	.	.	.	1cc\	.
.	.	.	4G/	.	.	.	.	.
.	.	.	4A\	glo-	2.c\	glo-	.	.
.	.	.	4B\	.	.	.	.	.
.	.	.	1c\	-ri-	.	.	4b\	.
*	*	*	*	*	*custos:e	*	*	*
!	!	!	!	!	!LO:TX:t=P:problem=kreska pseudotaktowa	!	!	!
.	.	.	.	.	4d\	.	4a\	.
=31-	=31-	=31-	=31-	=31-	=31-	=31-	=31-	=31-
!LO:TX:t=P:problem=kreska pseudotaktowa	!	!	!	!	!LO:LB:g=original	!	!	!
0r	.	.	.	.	4e\	-ri-	2g\	-ri-
.	.	.	.	.	4f\	.	.	.
.	.	.	2B\	.	1g\	-am	2g\	-âm
.	.	.	2A\	-am	.	.	1a\	tu-
.	.	.	2A\	tu-	2f\	tu-	.	.
=32-	=32-	=32-	=32-	=32-	=32-	=32-	=32-	=32-
!	!	!	!LO:TX:t=P:problem=kreska pseudotaktowa	!	!	!	!LO:TX:t=P:problem=kreska pseudotaktowa	!
0GG/	Do-	.	1G/,<	-am.	2g,<\	-am	1b\,	-am
.	.	.	.	.	1d\	Do-	.	.
!	!	!	!LO:LB:g=original	!	!	!	!	!
.	.	.	1G/	Do-	.	.	1g\	D(o-
.	.	.	.	.	2d\	-mi-	.	.
=33-	=33-	=33-	=33-	=33-	=33-	=33-	=33-	=33-
2C/	-mi-	.	2G/	-mi-	2c/	-ne	2e/	-mi)-
!LO:TX:t=P:problem=kreska pseudotaktowa	!	!	!	!	!	!	!	!
2C/	-ne	.	2A/	-ne	1c\	DE-	2c/	-ne
*	*	*	*	*	*	*	*custos:e	*
!	!	!	!	!	!	!	!LO:TX:t=P:problem=kreska pseudotaktowa	!
1D\	De-	.	1F/	DE-	.	.	1f/	DE-
!	!	!	!	!	!LO:TX:t=P:problem=kreska pseudotaktowa	!	!	!
.	.	.	.	.	2B/	.	.	.
=34-	=34-	=34-	=34-	=34-	=34-	=34-	=34-	=34-
!	!	!	!LO:TX:t=P:problem=kreska pseudotaktowa	!	!	!	!LO:LB:g=original	!
1.C/	-us	.	1G/	-(us)	1.c\	-us	2e/	-us.
.	.	.	.	.	.	.	2.g/	Rex
.	.	.	2E/	Rex	.	.	.	.
.	.	.	.	.	.	.	4f/	.
!LO:TX:t=P:problem=kreska pseudotaktowa	!	!	!	!	!	!	!	!
2C/	Rex	.	1G/	cae-	2c/	Rex	1e/	cae-
=35-	=35-	=35-	=35-	=35-	=35-	=35-	=35-	=35-
1D\	cae-	.	.	.	1A/	cae-	.	.
.	.	.	2F/	.	.	.	1d/	-le-
1AA/	.	.	1E/	-le-	2.A/	-le-	.	.
.	.	.	.	.	.	.	2c/	.
.	.	.	.	.	4G/	.	.	.
=36-	=36-	=36-	=36-	=36-	=36-	=36-	=36-	=36-
!LO:TX:t=P:problem=kreska pseudotaktowa	!	!	!LO:TX:t=P:problem=kreska pseudotaktowa	!	!	!	!LO:TX:t=P:problem=kreska pseudotaktowa	!
1D\	-le-	.	0D/	-ſtis	4F/	.	0d/	-ſtis
.	.	.	.	.	4E/	.	.	.
.	.	.	.	.	2F/	.	.	.
1.G\	-ſtis	.	.	.	2G/	-stis	.	.
.	.	.	.	.	1d\	DE-	.	.
=37-	=37-	=37-	=37-	=37-	=37-	=37-	=37-	=37-
.	.	.	1rA	.	.	.	2r	.
!	!	!	!	!	!LO:TX:t=P:problem=kreska pseudotaktowa	!	!	!
2GG/	DE-	.	.	.	2d\	-us	1g\	DE-
!	!	!	!	!	!LO:TX:b:t=3	!	!	!
0C/	-(us)	.	2rF	.	0.e\	P(a-	.	.
.	.	.	1G/	DE-	.	.	2g\	-(us)
=38-	=38-	=38-	=38-	=38-	=38-	=38-	=38-	=38-
.	.	.	.	.	.	.	2.cc\	Pa-
.	.	.	2G/	-US	.	.	.	.
.	.	.	.	.	.	.	4b\	.
!LO:TX:t=P:problem=kreska pseudotaktowa	!	!	!	!	!	!	!	!
1C/	Pa-	.	2.c\	Pa-	.	.	2a\	-ter
.	.	.	.	.	.	.	2g\	o-
.	.	.	4B\	-ter	.	.	.	.
=39-	=39-	=39-	=39-	=39-	=39-	=39-	=39-	=39-
2D\	-ter	.	2A\	o-	2d\	-te)r	2f/	-(mni)-
!	!	!	!	!	!LO:TX:t=P:problem=kreska pseudotaktowa	!	!	!
2E\	o-	.	2G/	-[mn]i-	2c\	o-	1g\	.
2.D\	-mni-	.	1A\	-po-	2d\	-mni-	.	.
.	.	.	.	.	2d\	-po-	2f/	-po-
4D\	-po-	.	.	.	.	.	.	.
=40-	=40-	=40-	=40-	=40-	=40-	=40-	=40-	=40-
!LO:TX:t=P:problem=kreska pseudotaktowa	!	!	!LO:TX:t=P:problem=kreska pseudotaktowa	!	!LO:TX:t=P:problem=kreska pseudotaktowa	!	!LO:TX:t=P:problem=kreska pseudotaktowa	!
1GG/	-tens	.	1G/	-tens	1d\	-tens	1g\	-tens
2r	.	.	2r	.	2r	.	2r	.
1G\	Do-	.	1B\	Do-	1d\	D(o-	1g\	Do-
=41-	=41-	=41-	=41-	=41-	=41-	=41-	=41-	=41-
!LO:TX:t=P:problem=kreska pseudotaktowa	!	!	!	!	!	!	!	!
2G\	-mi-	.	2B\	-mi-	2d\	-mi)-	2g\	-mi-
2D\	-ne	.	2A\	-ne	2d\	-ne	2f/	-ne
2F\	Fi-	.	2A\	Fi-	2c/	Fi-	2f/	Fi-
=42-	=42-	=42-	=42-	=42-	=42-	=42-	=42-	=42-
!LO:TX:t=P:problem=kreska pseudotaktowa	!	!	!	!	!	!	!LO:TX:t=P:problem=kreska pseudotaktowa	!
1C/	-li	.	1.G/	-li	2.c/	-li	1e/	-li
.	.	.	.	.	4d\	.	.	.
1C/	U-	.	.	.	1e\	U-	1g\	u-
.	.	.	1c\	U-	.	.	.	.
=43-	=43-	=43-	=43-	=43-	=43-	=43-	=43-	=43-
2.F\	-ni-	.	.	.	1f\	-ni-	2a\	-ni-
.	.	.	2A\	-ni-	.	.	2.cc\	-ge-
!LO:TX:t=P:problem=kreska pseudotaktowa	!	!	!	!	!	!	!	!
4G\	.	.	.	.	.	.	.	.
2A\	-ge-	.	2c\	-ge-	2e\	-ge-	.	.
.	.	.	.	.	.	.	4b\	.
!LO:TX:t=P:problem=kreska pseudotaktowa	!	!	!	!	!	!	!	!
2D\	.	.	2d\	.	2f\	-ni-	1a\	.
=44-	=44-	=44-	=44-	=44-	=44-	=44-	=44-	=44-
!	!	!	!	!	!LO:TX:t=P:problem=kreska pseudotaktowa	!	!	!
2E\	.	.	1B\	-ni-	1e\	-te	.	.
2E\	-ni-	.	.	.	.	.	2g\	-ni-
!LO:TX:t=P:problem=kreska pseudotaktowa	!	!	!	!	!	!	!LO:TX:t=P:problem=kreska pseudotaktowa	!
1AA/	-te	.	2.A\	.	2r	.	1a\	-te
.	.	.	.	.	1e\	Je-	.	.
.	.	.	4B\	.	.	.	.	.
=45-	=45-	=45-	=45-	=45-	=45-	=45-	=45-	=45-
!LO:LB:g=original	!	!	!LO:TX:t=P:problem=kreska pseudotaktowa	!	!	!	!	!
1.A\	Je-	.	0c\	-te	.	.	1rdd	.
.	.	.	.	.	2d\	-su	.	.
.	.	.	.	.	2c/	.	1.a\	Je-
!LO:TX:t=P:problem=kreska pseudotaktowa	!	!	!	!	!	!	!	!
2G\	-su	.	.	.	2B/	.	.	.
=46-	=46-	=46-	=46-	=46-	=46-	=46-	=46-	=46-
2F\	.	.	2rF	.	2A/	Chri-	.	.
2E\	.	.	2G/	Je-	1c\	.	2g\	-su
1D\	x-	.	2A/	-su	.	.	1f/	x-
.	.	.	2F/	x-	2B/	.	.	.
=47-	=47-	=47-	=47-	=47-	=47-	=47-	=47-	=47-
!LO:TX:t=P:problem=kreska pseudotaktowa	!	!	!LO:TX:t=P:problem=kreska pseudotaktowa	!	!LO:TX:t=P:problem=kreska pseudotaktowa	!	!LO:TX:a:t=3	!
0.C/	-te	.	0G/	-te	1c\,<	-ste	0.e/	-te
!	!	!	!	!	!LO:LB:g=original	!	!	!
.	.	.	.	.	2r	.	.	.
.	.	.	.	.	2G/	Do-	.	.
=48-	=48-	=48-	=48-	=48-	=48-	=48-	=48-	=48-
!	!	!	!	!	!	!	!LO:TX:t=P:problem=kreska pseudotaktowa	!
.	.	.	2r	.	2G/	-mi-	.	.
.	.	.	2G/	Do-	2G/	-ne	.	.
2rBB	.	.	2G/	-mi-	2.c\	DE-	1r	.
!LO:TX:t=P:problem=kreska pseudotaktowa	!	!	!	!	!	!	!	!
2C/	Do-	.	2G/	-ne	.	.	.	.
.	.	.	.	.	4d\	.	.	.
=49-	=49-	=49-	=49-	=49-	=49-	=49-	=49-	=49-
!	!	!	!	!	!LO:TX:t=P:problem=kreska pseudotaktowa	!	!	!
2C/	-mi-	.	2.c\	DE-	1e\	-US	2re	.
!LO:TX:t=P:problem=kreska pseudotaktowa	!	!	!	!	!	!	!	!
2C/	-ne	.	.	.	.	.	2c/	D(o-
!	!	!	!LO:TX:t=P:problem=kreska pseudotaktowa	!	!	!	!	!
.	.	.	4B\	.	.	.	.	.
!	!	!	!LO:LB:g=original	!	!	!	!	!
2.F\	De-	.	2.A/	.	2rA	.	2c/	-mi)-
.	.	.	.	.	1A/	A-	2c/	-ne
4E\	.	.	4G/	.	.	.	.	.
=50-	=50-	=50-	=50-	=50-	=50-	=50-	=50-	=50-
!LO:TX:t=P:problem=kreska pseudotaktowa	!	!	!	!	!	!	!	!
1D\	-us	.	1F/	-US	.	.	1f/	De-
.	.	.	.	.	2B/	.	.	.
1.C/	A-	.	2.G/	A-	2.c\	.	2e/	-(us)
.	.	.	.	.	.	.	1g\	A-
.	.	.	4F/	-gnus	4d\	-gnus	.	.
=51-	=51-	=51-	=51-	=51-	=51-	=51-	=51-	=51-
.	.	.	4E/	.	2e\	De-	.	.
.	.	.	4D/	.	.	.	.	.
2BB/	-gn(us)	.	1G/	De-	2d\	.	2g\	-gnus
1AA/	De-	.	.	.	2c\	.	1a\	De-
.	.	.	2F/	.	2A/	.	.	.
=52-	=52-	=52-	=52-	=52-	=52-	=52-	=52-	=52-
!LO:TX:t=P:problem=kreska pseudotaktowa	!	!	!	!	!LO:TX:t=P:problem=kreska pseudotaktowa	!	!LO:TX:t=P:problem=kreska pseudotaktowa	!
1GG/	-i	.	1G/	-i.	1d\	-i	1b\	-i
*	*	*	*	*	*	*	*custos:b	*
!	!	!	!	!	!	!	!LO:TX:b:t=Cito.	!
1r	.	.	1r	.	1r	.	1rdd	.
=53-	=53-	=53-	=53-	=53-	=53-	=53-	=53-	=53-
!	!	!	!	!	!	!	!LO:PB:g=original	!
*M3/2	*	*	*M3/2	*	*M3/2	*	*M3/2	*
1GG/	Fi-	.	1G/	Fi-	1d\	Fi-	1b\	Fi-
!LO:TX:t=P:problem=kreska pseudotaktowa	!	!	!	!	!	!	!	!
2GG/	-li-	.	2G/	-li-	2d\	-li-	2b\	-li-
=54-	=54-	=54-	=54-	=54-	=54-	=54-	=54-	=54-
1C/	-us	.	1G/	-us	1e\	-us	2.cc\	-us
.	.	.	.	.	.	.	4b\	.
!LO:TX:t=P:problem=kreska pseudotaktowa	!	!	!LO:TX:t=P:problem=kreska pseudotaktowa	!	!LO:TX:t=P:problem=kreska pseudotaktowa	!	!LO:TX:t=P:problem=kreska pseudotaktowa	!
2D\	Pa-	.	2F/	.	2A/	.	2a\	.
=55-	=55-	=55-	=55-	=55-	=55-	=55-	=55-	=55-
2E\	.	.	2G/	Pa-	2c\	Pa-	1g\	Pa-
1D\	.	4	1A\	.	1d\	.	.	.
.	.	3	.	.	.	.	2f#X/	.
=56-	=56-	=56-	=56-	=56-	=56-	=56-	=56-	=56-
!	!	!	!	!	!LO:TX:t=P:problem=kreska pseudotaktowa	!	!	!
1GG/	-tris.	.	1G/	-tris.	1.d\	-tris	1g\	-tris.
!LO:TX:t=P:problem=kreska pseudotaktowa	!	!	!LO:TX:t=P:problem=kreska pseudotaktowa	!	!	!	!LO:TX:t=P:problem=kreska pseudotaktowa	!
2rGG	.	.	2r	.	.	.	2r	.
=57-	=57-	=57-	=57-	=57-	=57-	=57-	=57-	=57-
*	*ij	*	*	*ij	*	*	*	*
1GG/	Fi-	.	1G/	Fi-	1d\	Fi-	1b\	Fi-
!LO:TX:t=P:problem=kreska pseudotaktowa	!	!	!	!	!	!	!	!
2GG/	-li-	.	2G/	-li-	2d\	-li-	2b\	-li-
=58-	=58-	=58-	=58-	=58-	=58-	=58-	=58-	=58-
1C/	-us	6	1G/	-us	1e\	-(us)	2.cc\	-us
.	.	.	.	.	.	.	4b\	.
!	!	!	!LO:TX:t=P:problem=kreska pseudotaktowa	!	!	!	!LO:TX:t=P:problem=kreska pseudotaktowa	!
2D\	Pa-	5	2F/	.	2A/	.	2a\	.
=59-	=59-	=59-	=59-	=59-	=59-	=59-	=59-	=59-
2E\	.	.	2G/	Pa-	2c\	Pa-	1g\	Pa-
1D\	.	4	1A\	.	1d\	.	.	.
.	.	3#r	.	.	.	.	2f#X/	.
=60-	=60-	=60-	=60-	=60-	=60-	=60-	=60-	=60-
*	*	*	*	*	*custos:G	*	*	*
!	!	!	!	!	!LO:TX:b:t=Vertat(ur)	!	!	!
!LO:N:vis=0.	!	!	!	!	!LO:N:vis=0.	!	!	!
1.GG/;	-tris.	.	1.Bn\;	-tris.	1.d\	-tris.	1.g\	-tris.
=61||	=61||	=61||	=61||	=61||	=61||	=61||	=61||	=61||
*M2/1	*Xij	*	*M2/1	*Xij	*M2/1	*	*M2/1	*
*met(c|)	*	*	*met(c|)	*	*met(c|)	*	*met(c|)	*
!LO:LB:g=original	!	!	!	!	!LO:PB:g=original	!	!	!
00r	.	.	0re	.	1rg	.	1g\	Qui
.	.	.	.	.	1G/	Qui	1.g\	tol-
=62-	=62-	=62-	=62-	=62-	=62-	=62-	=62-	=62-
!	!	!	!LO:TX:t=P:problem=kreska pseudotaktowa	!	!	!	!	!
.	.	.	1re	.	1.c\	tol-	.	.
!	!	!	!	!	!	!	!LO:TX:t=P:problem=kreska pseudotaktowa	!
.	.	.	.	.	.	.	2g/	-lis
.	.	.	1C/	Qui	.	.	1e/	pec-
.	.	.	.	.	2c\	-lis	.	.
=63-	=63-	=63-	=63-	=63-	=63-	=63-	=63-	=63-
0r	.	.	1.G/	tol-	2B/	pec-	1d/	-ca-
.	.	.	.	.	1d\	-ca-	.	.
!	!	!	!	!	!	!	!LO:TX:t=P:problem=kreska pseudotaktowa	!
.	.	.	.	.	.	.	1g\	-ta
.	.	.	2G/	-lis	4c/	.	.	.
.	.	.	.	.	4B/	.	.	.
=64-	=64-	=64-	=64-	=64-	=64-	=64-	=64-	=64-
!LO:TX:t=P:problem=kreska pseudotaktowa	!	!	!	!	!	!	!	!
1r	.	.	2A\	pec-	2c/	.	2e/	mun-
.	.	.	1c\	-ca-	2A/	-ta	4d/	.
.	.	.	.	.	.	.	4c/	.
!	!	!	!	!	!LO:TX:t=P:problem=kreska pseudotaktowa	!	!	!
1GG/	Qui	.	.	.	0G/	mun-	1d/	.
!	!	!	!LO:TX:t=P:problem=kreska pseudotaktowa	!	!	!	!	!
.	.	.	2B\	.	.	.	.	.
=65-	=65-	=65-	=65-	=65-	=65-	=65-	=65-	=65-
1.C/	tol-	.	2.c\	-ta	.	.	2.e/	.
.	.	.	8B\L	.	.	.	4d/	.
.	.	.	8A\J	.	.	.	.	.
*	*	*	*lig	*	*	*	*	*
.	.	.	1G/	mun-	1c\	-di	4e/	.
.	.	.	.	.	.	.	4f/	.
!LO:TX:t=P:problem=kreska pseudotaktowa	!	!	!	!	!	!	!	!
2C/	-lis	.	.	.	.	.	4g/	.
!	!	!	!	!	!	!	!LO:TX:t=P:problem=kreska pseudotaktowa	!
.	.	.	.	.	.	.	4e/	.
=66-	=66-	=66-	=66-	=66-	=66-	=66-	=66-	=66-
2D\	pec-	.	1F/	.	2.A/	p(ec-	4f/	.
.	.	.	.	.	.	.	4g/	.
2F\	.	.	.	.	.	.	2.a\	.
.	.	.	.	.	4B/	-ca)-	.	.
*	*	*	*Xlig	*	*	*	*	*
*	*	*	*lig	*	*lig	*	*	*
2C/	-ca-	.	1G/	.	1c\	-ta	.	.
.	.	.	.	.	.	.	4g/	.
!LO:TX:t=P:problem=kreska pseudotaktowa	!	!	!	!	!	!	!	!
2E\	-ta	.	.	.	.	.	1g\	.
=67-	=67-	=67-	=67-	=67-	=67-	=67-	=67-	=67-
1D\	mun-	.	1A\	.	1d\	mun-	.	.
.	.	.	.	.	.	.	2f#X/	.
*	*	*	*Xlig	*	*Xlig	*	*	*
!LO:TX:t=P:problem=kreska pseudotaktowa	!	!	!	!	!LO:TX:t=P:problem=kreska pseudotaktowa	!	!LO:TX:t=P:problem=kreska pseudotaktowa	!
1GG/	-di	.	2G/	-di	1B/,<	-di	0.g\	-di
!	!	!	!LO:TX:t=P:problem=kreska pseudotaktowa	!	!	!	!	!
.	.	.	2d\	mi-	.	.	.	.
=68-	=68-	=68-	=68-	=68-	=68-	=68-	=68-	=68-
!	!	!	!LO:LB:g=original	!	!	!	!	!
2r	.	.	2d\	-se-	2r	.	.	.
!LO:TX:t=P:problem=kreska pseudotaktowa	!	!	!	!	!	!	!	!
2G\	mi-	.	2d\	-re-	2B/	mi-	.	.
2G\	-ſe-	.	2G,</	-re	2B/	-se-	.	.
!LO:TX:t=P:problem=kreska pseudotaktowa	!	!	!	!	!	!	!	!
2G\	-re-	.	2d\	no-	2B/	-re-	.	.
=69-	=69-	=69-	=69-	=69-	=69-	=69-	=69-	=69-
2C/	-re	.	2c\	.	2c\	-re	2r	.
2.G\	no-	.	2.B\	.	1d\	.	2b\	mi-
.	.	.	.	.	.	.	2b\	-ſe-
4F\	.	.	4A/	.	.	.	.	.
!	!	!	!	!	!	!	!LO:TX:t=P:problem=kreska pseudotaktowa	!
4E\	.	.	1G/	.	1e\	.	2b\	-re-
4D\	.	.	.	.	.	.	.	.
=70-	=70-	=70-	=70-	=70-	=70-	=70-	=70-	=70-
!	!	!	!	!	!	!	!LO:LB:g=original	!
2C/	.	.	.	.	.	.	2cc\	-re
!	!	!	!LO:TX:t=P:problem=♯above	!	!	!	!	!
2D\	.	.	2F#X/	.	2.d\	no-	2a\	no-
!LO:TX:t=P:problem=kreska pseudotaktowa	!	!	!LO:TX:t=P:problem=kreska pseudotaktowa	!	!	!	!LO:TX:t=P:problem=kreska pseudotaktowa	!
0GG/	-bis.	.	1G/	-bis.	.	.	0b\	-bis
.	.	.	.	.	4c/	.	.	.
.	.	.	.	.	4B/	.	.	.
.	.	.	.	.	4A/	.	.	.
=71-	=71-	=71-	=71-	=71-	=71-	=71-	=71-	=71-
.	.	.	2r	.	2G,</	-bis	.	.
.	.	.	2G/	Qui	2d\	Qui	.	.
00r	.	.	1c\	tol-	1e\	tol-	2r	.
.	.	.	.	.	.	.	2g\	Qui
=72-	=72-	=72-	=72-	=72-	=72-	=72-	=72-	=72-
.	.	.	2G,</	-lis	2d\	-lis	1b\	tol-
.	.	.	2G/	pec-	2d\	pec-	.	.
!	!	!	!	!	!	!	!LO:TX:t=P:problem=kreska pseudotaktowa	!
.	.	.	1A\	-ca-	1c\	-ca-	1cc\	-lis
=73-	=73-	=73-	=73-	=73-	=73-	=73-	=73-	=73-
.	.	.	2G/	.	2.d\	.	2b\	pec-
.	.	.	1Fny/	-ta	.	.	1a\	-ca-
.	.	.	.	.	4c/	.	.	.
0r	.	.	.	.	4A/	.	.	.
.	.	.	.	.	4B/	.	.	.
.	.	.	2E/	.	1c\	-ta	2g/	-ta
=74-	=74-	=74-	=74-	=74-	=74-	=74-	=74-	=74-
.	.	.	1D/	mun-	.	.	1fny/	mun-
.	.	.	.	.	2B/	.	.	.
!LO:TX:t=P:problem=kreska pseudotaktowa	!	!	!LO:TX:t=P:problem=kreska pseudotaktowa	!	!LO:TX:t=P:problem=kreska pseudotaktowa	!	!LO:TX:t=P:problem=kreska pseudotaktowa	!
1r	.	.	1C/	-di.	1c\	mun-	1e/	di
=75-	=75-	=75-	=75-	=75-	=75-	=75-	=75-	=75-
!	!	!	!	!	!LO:TX:t=2	!	!	!
0C/	Sus-	.	0c\	Su-	0e\	-di	0g\	Su-
=76-	=76-	=76-	=76-	=76-	=76-	=76-	=76-	=76-
2.D\	.	.	1A\	-ſci-	2.d\	Su-	2.f/	.
4D\	-ci-	.	.	.	4d\	-ſci-	4f/	-ſci-
*	*	*	*	*	*custos:e	*	*	*
!	!	!	!	!	!LO:TX:t=P:problem=kreska pseudotaktowa	!	!	!
!LO:TX:t=P:problem=kreska pseudotaktowa	!	!	!LO:TX:t=P:problem=kreska pseudotaktowa	!	!	!	!LO:TX:t=P:problem=kreska pseudotaktowa	!
1E\	-pe	.	1G/	-pe	1B/	-pe	1e/	-pe
=77-	=77-	=77-	=77-	=77-	=77-	=77-	=77-	=77-
!	!	!	!	!	!LO:LB:g=original	!	!	!
1C/	de-	.	1c\	de-	1e\	de-	1g\	de-
2C/	-pre-	.	2c\	-pre-	2e\	-pre-	2g/	-pre-
1C/	-ca-	.	1c\	-ca-	1e\	-ca-	1g\	-ca-
=78-	=78-	=78-	=78-	=78-	=78-	=78-	=78-	=78-
!	!	!	!	!	!	!	!LO:TX:t=P:problem=kreska pseudotaktowa	!
2C/	-ti-	.	2C/	-ti-	2e\	-ti-	2g/	-ti-
1AA/	-o-	.	2E/	-o-	2c\	-o-	2a\	-o-
.	.	.	2F,</	-nem	2A/	-nem	1cc\	.
=79-	=79-	=79-	=79-	=79-	=79-	=79-	=79-	=79-
!LO:TX:t=P:problem=kreska pseudotaktowa	!	!	!	!	!	!	!	!
1GG/	-nem	.	1G/	no-	0d\	no-	.	.
.	.	.	.	.	.	.	1b\,<	-nem
1D\	.	.	4F/	.	.	.	.	.
.	.	.	4G/	.	.	.	.	.
.	.	.	4A/	.	.	.	1a\	no-
.	.	.	4B/	.	.	.	.	.
=80-	=80-	=80-	=80-	=80-	=80-	=80-	=80-	=80-
2C/	.	.	4c\	.	2e\	.	.	.
.	.	.	4B\	.	.	.	.	.
!LO:TX:t=P:problem=kreska pseudotaktowa	!	!	!	!	!	!	!	!
2E\	.	.	4A\	.	2c\	.	1g\	.
.	.	.	4G\	.	.	.	.	.
1D\	no-	.	1A\	.	1d\	.	.	.
!	!	!	!	!	!	!	!LO:TX:t=P:problem=kreska pseudotaktowa	!
!	!	!	!	!	!	!	!LO:TX:t=P:problem=♯above	!
.	.	.	.	.	.	.	2f#X/	.
=81-	=81-	=81-	=81-	=81-	=81-	=81-	=81-	=81-
*custos:G	*	*	*	*	*	*	*	*
!LO:TX:t=P:problem=kreska pseudotaktowa	!	!	!	!	!	!	!	!
!	!	!	!	!	!LO:TX:t=P:problem=kreska pseudotaktowa	!	!LO:TX:t=P:problem=kreska pseudotaktowa	!
0GG/	-stram.	.	2G,</	-stram	0.B/	-stram	1g\	-stram
.	.	.	2D/	Qui	.	.	.	.
!	!	!	!LO:TX:t=P:problem=kreska pseudotaktowa	!	!	!	!	!
.	.	.	1G/	se-	.	.	2r	.
.	.	.	.	.	.	.	2d/	Qui
=82-	=82-	=82-	=82-	=82-	=82-	=82-	=82-	=82-
!LO:LB:g=original	!	!	!	!	!	!	!	!
2r	.	.	2G/	-des	.	.	1g\	se-
!LO:TX:t=P:problem=kreska pseudotaktowa	!	!	!	!	!	!	!	!
2GG/	Qui	.	2G/	ad	.	.	.	.
!LO:TX:t=P:problem=kreska pseudotaktowa	!	!	!	!	!	!	!LO:TX:t=P:problem=kreska pseudotaktowa	!
1D\	se-	.	1A\	dex-	0r	.	1fn/	-des
=83-	=83-	=83-	=83-	=83-	=83-	=83-	=83-	=83-
2D\	-des	.	2A\	-te-	.	.	2r	.
*	*	*	*	*	*	*	*	*ij
2D\	ad	.	1B\	.	.	.	2d/	Qui
!LO:TX:t=P:problem=kreska pseudotaktowa	!	!	!	!	!	!	!	!
1E\	.	.	.	.	2rA	.	1g\	se-
!	!	!	!LO:TX:t=P:problem=kreska pseudotaktowa	!	!	!	!	!
.	.	.	2c\	-r(am)	2G/	Qui	.	.
=84-	=84-	=84-	=84-	=84-	=84-	=84-	=84-	=84-
!	!	!	!	!	!	!	!LO:TX:t=P:problem=kreska pseudotaktowa	!
1.D\	dex-	.	2.A/	Pa-	1d\	se-	1f/	-des
*	*	*	*	*	*	*	*	*Xij
.	.	.	4G/	.	.	.	.	.
.	.	.	2A\	.	2d\	-des	2f/	ad
2G\	-te-	.	2B\	.	2d\	ad	1g\	.
=85-	=85-	=85-	=85-	=85-	=85-	=85-	=85-	=85-
4C/	.	.	1c\	.	1e\	dex-	.	.
4D/	.	.	.	.	.	.	.	.
4E/	.	.	.	.	.	.	2g/	dex-
!LO:TX:t=P:problem=kreska pseudotaktowa	!	!	!	!	!	!	!	!
4F/	.	.	.	.	.	.	.	.
2G\	.	.	2B\	.	2d\	.	2g/	-te-
2C/	-ram	.	1G/	.	1c\	.	2e/	-r(am)
=86-	=86-	=86-	=86-	=86-	=86-	=86-	=86-	=86-
1D\	Pa-	.	.	.	.	.	1f/	Pa-
!	!	!	!LO:TX:t=P:problem=♯above	!	!	!	!	!
.	.	.	2F#X/	.	2B/	-te-	.	.
*	*	*	*custos:G	*	*	*	*custos:g	*
!	!	!	!LO:TX:t=P:problem=kreska pseudotaktowa	!	!	!	!LO:TX:t=P:problem=kreska pseudotaktowa	!
!LO:TX:t=P:problem=kreska pseudotaktowa	!	!	!	!	!LO:TX:t=P:problem=kreska pseudotaktowa	!	!	!
0C/	-tris	.	1G/	-tris.	0c\	-ram	0e/	-tris
=87-	=87-	=87-	=87-	=87-	=87-	=87-	=87-	=87-
!	!	!	!LO:PB:g=original	!	!	!	!	!
.	.	.	2r	.	.	.	.	.
.	.	.	2G/	mi-	.	.	.	.
!	!	!	!	!	!	!	!LO:LB:g=original	!
2r	.	.	2G/	-ſe-	2r	.	2r	.
!LO:TX:t=P:problem=kreska pseudotaktowa	!	!	!	!	!	!	!	!
2C/	mi-	.	2G/	-re-	2e\	P(a-	2g\	mi-
=88-	=88-	=88-	=88-	=88-	=88-	=88-	=88-	=88-
2C/	-ſe-	.	0c\	-re	2e\	-t)ris	2g\	-ſe-
!	!	!	!	!	!	!	!LO:TX:t=P:problem=kreska pseudotaktowa	!
2C/	-re-	.	.	.	2e\	mi-	2g\	-re-
2F\	.	.	.	.	1f\	-ſe-	2a\	-re
!LO:TX:t=P:problem=kreska pseudotaktowa	!	!	!	!	!	!	!	!
2A\	-re	.	.	.	.	.	1cc\	no-
=89-	=89-	=89-	=89-	=89-	=89-	=89-	=89-	=89-
1G\	no-	.	1d\	no-	1g\	-re-	.	.
.	.	.	.	.	.	.	2b\	.
!LO:TX:t=P:problem=kreska pseudotaktowa	!	!	!LO:TX:t=P:problem=kreska pseudotaktowa	!	!LO:TX:t=P:problem=kreska pseudotaktowa	!	!LO:TX:t=P:problem=kreska pseudotaktowa	!
0C/	-bis.	.	1c\	-bis.	1e\,<	-re	1cc\	-bis
=90-	=90-	=90-	=90-	=90-	=90-	=90-	=90-	=90-
.	.	.	1c\	Quo-	1e\	no-	2r	.
.	.	.	.	.	.	.	1g\	Quo-
00r	.	.	2c\	-ni-	2e\	-bis	.	.
.	.	.	1c\	-am	1e\	Quo-	2g/	-ni-
=91-	=91-	=91-	=91-	=91-	=91-	=91-	=91-	=91-
!	!	!	!	!	!	!	!LO:TX:t=P:problem=kreska pseudotaktowa	!
.	.	.	.	.	.	.	1g\	-am
.	.	.	2B\	.	2d\	-ni-	.	.
.	.	.	1A\	.	1c\	-am	2f/	Tu
.	.	.	.	.	.	.	1e/	so-
=92-	=92-	=92-	=92-	=92-	=92-	=92-	=92-	=92-
!	!	!	!LO:TX:t=P:problem=kreska pseudotaktowa	!	!LO:TX:t=P:problem=kreska pseudotaktowa	!	!	!
.	.	.	1G/	Tu	1B/	tu	.	.
.	.	.	.	.	.	.	2d/	-l(us)
*	*	*	*	*	*	*	*lig	*
!LO:TX:t=P:problem=kreska pseudotaktowa	!	!	!	!	!	!	!	!
0rD	.	.	2Fny/	so-	2c\	so-	1f/	San-
.	.	.	2D/	-l(us)	1d\	-l(us)	.	.
=93-	=93-	=93-	=93-	=93-	=93-	=93-	=93-	=93-
.	.	.	1A\	s(an)-	.	.	1e/	.
.	.	.	.	.	2c\	San-	.	.
*	*	*	*	*	*	*	*Xlig	*
2r	.	.	2D,</	-ctus	2d,<\	-ct(us).	2d/	-ct(us)
!	!	!	!	!	!LO:TX:t=P:problem=kreska pseudotaktowa	!	!	!
2D\	Tu	.	2A/	Tu	2d\	Tu	2f/	Tu
=94-	=94-	=94-	=94-	=94-	=94-	=94-	=94-	=94-
1D\	so-	.	1A\	so-	1d\	so-	1f/	so-
!LO:TX:t=P:problem=kreska pseudotaktowa	!	!	!	!	!	!	!LO:TX:t=P:problem=kreska pseudotaktowa	!
1C/	-lus	.	2.c\	.	1G/	-l(us)	1e/	.
.	.	.	4B\	.	.	.	.	.
=95-	=95-	=95-	=95-	=95-	=95-	=95-	=95-	=95-
1C/	Do-	.	2A/	-lus	(2.c/	D(o-	1e/	-lus
.	.	.	1G/	Do-	.	.	.	.
.	.	.	.	.	4B/)	.	.	.
2.D\	.	.	.	.	2A/	.	2.d/	Do-
.	.	.	2F/	-mi-	2A/	-mi)-	.	.
4D\	-mi-	.	.	.	.	.	4d/	-mi-
=96-	=96-	=96-	=96-	=96-	=96-	=96-	=96-	=96-
!LO:TX:t=P:problem=kreska pseudotaktowa	!	!	!LO:TX:t=P:problem=kreska pseudotaktowa	!	!LO:TX:t=P:problem=kreska pseudotaktowa	!	!	!
0GG/	-n(us).	.	1G/	-n(us).	1B/,<	-n(us)	2d,</	-n(us).
!	!	!	!	!	!	!	!LO:TX:t=P:problem=kreska pseudotaktowa	!
.	.	.	.	.	.	.	2d/	Tu
!	!	!	!	!	!LO:LB:g=original	!	!	!
.	.	.	2r	.	2r	.	1.g\	so-
.	.	.	2G/	Tu	2d\	Tu	.	.
=97-	=97-	=97-	=97-	=97-	=97-	=97-	=97-	=97-
0rD	.	.	1c\	so-	1e\	so-	.	.
.	.	.	.	.	.	.	2g\	-l(us)
.	.	.	2c\	-lus	2e\	-lus	1g\	al-
.	.	.	2B\	al-	2d\	al-	.	.
=98-	=98-	=98-	=98-	=98-	=98-	=98-	=98-	=98-
!LO:TX:t=P:problem=kreska pseudotaktowa	!	!	!	!	!	!	!	!
1rD	.	.	2A/	-tiſ-	2e\	-tiſ-	2a\	-tiſ-
.	.	.	2A/	-si-	2f\	-si-	2a\	-si-
!	!	!	!LO:TX:t=P::problem=kreska pseudotaktowa&colon;między nutą a kropką	!	!	!	!	!
2rC	.	.	(>1.G/	-m(us)	2g,<\	-m(us)	2b,<\	-m(us)
1C/	Je-	.	.	.	1e\	Je-	1cc\	Je-
=99-	=99-	=99-	=99-	=99-	=99-	=99-	=99-	=99-
!	!	!	!	!	!	!	!LO:TX:t=P:problem=kreska pseudotaktowa	!
2C/	-su	.	2G/)	.	2.e\	-su	2cc\	-su
*lig	*	*	*	*	*	*	*	*
1D\	x-	.	2F/	Je-	.	.	0a\	x-
.	.	.	.	.	4d\	.	.	.
.	.	.	4E/	-su	1d\	x-	.	.
!	!	!	!LO:TX:t=P:problem=kreska pseudotaktowa	!	!	!	!	!
.	.	.	4D/	.	.	.	.	.
=100-	=100-	=100-	=100-	=100-	=100-	=100-	=100-	=100-
!LO:TX:t=P:problem=kreska pseudotaktowa	!	!	!	!	!	!	!	!
1AA/	.	.	1E/	x-	.	.	.	.
!	!	!	!	!	!LO:TX:t=P:problem=kreska pseudotaktowa	!	!	!
.	.	.	.	.	2c\	.	.	.
*Xlig	*	*	*	*	*	*	*	*
!	!	!	!LO:TX:t=P:problem=kreska pseudotaktowa	!	!	!	!LO:TX:t=P:problem=kreska pseudotaktowa	!
1D\,<	-te.	.	1D/	-te	2d,<\	-te	1a\,<	-te
.	.	.	.	.	2d\	Cum	.	.
=101-	=101-	=101-	=101-	=101-	=101-	=101-	=101-	=101-
2r	.	.	2r	.	1f\	.	0a\	Cum
2D\	Cum	.	1A\	Cum	.	.	.	.
!LO:TX:t=P:problem=kreska pseudotaktowa	!	!	!	!	!	!	!	!
1F\	San-	.	.	.	2.c\	San-	.	.
.	.	.	1c\	.	.	.	.	.
.	.	.	.	.	4d\	.	.	.
=102-	=102-	=102-	=102-	=102-	=102-	=102-	=102-	=102-
!LO:LB:g=original	!	!	!	!	!LO:TX:t=P:problem=kreska pseudotaktowa	!	!	!
2C/	-cto	.	.	.	1e\	-cto	1g\	S(an)-
2E\	.	.	2G/	San-	.	.	.	.
!LO:TX:t=P:problem=kreska pseudotaktowa	!	!	!	!	!	!	!	!
1D\	Spi-	.	2B\	.	2r	.	1f/,<	-cto
*	*	*	*	*	*	*ij	*	*
.	.	.	2.A/	-cto	2A/	Cum	.	.
=103-	=103-	=103-	=103-	=103-	=103-	=103-	=103-	=103-
2.AA/	.	.	.	.	1c\	San-	1.e/	Spi-
.	.	.	4G/	.	.	.	.	.
.	.	.	2.E/	Spi-	.	.	.	.
4BB/	.	.	.	.	.	.	.	.
2C/	.	.	.	.	2G/	.	.	.
.	.	.	4F/	.	.	.	.	.
*	*	*	*custos:E	*	*	*	*	*
!	!	!	!LO:TX:t=P:problem=kreska pseudotaktowa	!	!	!	!	!
2GG/	.	.	2G/	.	2B/	-cto	1d/	.
*	*	*	*	*	*	*Xij	*	*
=104-	=104-	=104-	=104-	=104-	=104-	=104-	=104-	=104-
!	!	!	!LO:LB:g=original	!	!	!	!	!
2.AA/	.	.	2.E/	.	2.A/	Spi-	.	.
!	!	!	!	!	!	!	!LO:TX:t=P:problem=♯above	!
.	.	.	.	.	.	.	2c#X/	-ri-
4AA/	-ri-	.	4E/	-ri-	4A/	-ri-	.	.
1D\	-tu	.	1D/	-tu	1A/	-tu	1d/	-tu
=105-	=105-	=105-	=105||	=105-	=105||	=105-	=105-	=105-
*M3/2	*	*	*M3/2	*	*M3/2	*	*M3/2	*
!	!	!	!	!	!	!	!LO:LB:g=original	!
!	!	!	!	!	!	!	!LO:TX:t=P:problem=nie wyswietla sie metrum	!
2D\	in	.	2F/	in	2d\	in	2a\	in
2D\	glo-	.	2F/	glo-	2d\	glo-	2a\	glo-
!	!	!	!	!	!LO:TX:t=P:problem=kreska pseudotaktowa	!	!	!
2D\	-ri-	.	2F/	-ri-	2d\	-ri-	2a\	-ri-
=106-	=106-	=106-	=106-	=106-	=106-	=106-	=106-	=106-
1GG/	-a	.	1G/	-a	1d\	-a	1b\	-a
!	!	!	!	!	!	!	!LO:TX:t=P:problem=kreska pseudotaktowa	!
2GG/	De-	.	2G/	De-	2d\	De-	2b\	De-
=107-	=107-	=107-	=107-	=107-	=107-	=107-	=107-	=107-
1C/	.	.	1G/	-i	1e\	.	2.cc\	.
.	.	.	.	.	.	.	4b\	.
!LO:TX:t=P:problem=kreska pseudotaktowa	!	!	!LO:TX:t=P:problem=kreska pseudotaktowa	!	!LO:TX:t=P:problem=kreska pseudotaktowa	!	!	!
2D\	-i	.	2F/	.	2A/	-i	2a\	-i
=108-	=108-	=108-	=108-	=108-	=108-	=108-	=108-	=108-
2E\	Pa-	.	2G/	Pa-	2c\	Pa-	1g\	Pa-
!LO:TX:t=P:problem=kreska pseudotaktowa	!	!	!	!	!	!	!	!
1D\	.	.	1A\	.	1d\	.	.	.
!	!	!	!	!	!	!	!LO:TX:t=P:problem=♯above	!
.	.	.	.	.	.	.	2f#X/	.
=109-	=109-	=109-	=109-	=109-	=109-	=109-	=109-	=109-
!	!	!	!	!	!	!	!LO:TX:t=P:problem=kreska pseudotaktowa	!
1GG/	-tris	.	1G/	-tris	1d\	-tris	1.g\	-tris
!LO:TX:t=P:problem=kreska pseudotaktowa	!	!	!LO:TX:t=P:problem=kreska pseudotaktowa	!	!LO:TX:t=P:problem=kreska pseudotaktowa	!	!	!
2rAA	.	.	2r	.	2r	.	.	.
=110-	=110-	=110-	=110-	=110-	=110-	=110-	=110-	=110-
*	*ij	*	*	*ij	*	*	*	*ij
2D\	in	.	2F/	in	2d\	in	2a\	in
2D\	glo-	.	2F/	glo-	2d\	glo-	2a\	glo-
!LO:TX:t=P:problem=kreska pseudotaktowa	!	!	!	!	!LO:TX:t=P:problem=kreska pseudotaktowa	!	!	!
2D\	-ri-	.	2F/	-ri-	2d\	-ri-	2a\	-ri-
=111-	=111-	=111-	=111-	=111-	=111-	=111-	=111-	=111-
!	!	!	!	!	!LO:LB:g=original	!	!	!
1GG/	-a	.	1G/	-a	1d\	-a	1b\	-a
!	!	!	!	!	!	!	!LO:TX:t=P:problem=kreska pseudotaktowa	!
2GG/	De-	.	2G/	De-	2d\	De-	2b\	De-
=112-	=112-	=112-	=112-	=112-	=112-	=112-	=112-	=112-
1C/	.	.	1G/	-i	1e\	.	2.cc\	.
.	.	.	.	.	.	.	4b\	.
2D\	-i	.	2F/	.	2A/	-i	2a\	-i
=113-	=113-	=113-	=113-	=113-	=113-	=113-	=113-	=113-
2E\	Pa-	.	2G/	Pa-	2c\	Pa-	1g\	Pa-
!LO:TX:t=P:problem=kreska pseudotaktowa	!	!	!	!	!	!	!	!
1D\	.	.	1A\	.	1d\	.	.	.
!	!	!	!	!	!	!	!LO:TX:t=P:problem=♯above	!
.	.	.	.	.	.	.	2f#X/	.
=114-	=114-	=114-	=114-	=114-	=114-	=114-	=114-	=114-
*M2/1	*	*	*M2/1	*	*M2/1	*	*M2/1	*
*met(c|)	*	*	*met(c|)	*	*met(c|)	*	*met(c|)	*
!	!	!	!LO:TX:t=P:problem=kreska pseudotaktowa	!	!	!	!	!
2GG,</	-tris	.	1G/	-tris	2d,<\	-tris	1g\,<	-tris
*	*	*	*	*Xij	*	*	*	*Xij
2.C/	A-	.	.	.	4c\	A-	.	.
.	.	.	.	.	4d\	.	.	.
.	.	.	2r	.	4e\	.	2.g\	A-
4D/	.	.	.	.	4f\	.	.	.
4E/	.	.	2.G/	A-	2g\	.	.	.
!LO:TX:t=P:problem=kreska pseudotaktowa	!	!	!	!	!	!	!	!
4F/	.	.	.	.	.	.	4a\	.
=115-	=115-	=115-	=115-	=115-	=115-	=115-	=115-	=115-
2G\	.	.	.	.	2.G/	.	4b\	.
.	.	.	4A/	.	.	.	4cc\	.
!LO:TX:t=P:problem=kreska pseudotaktowa	!	!	!	!	!	!	!	!
2GG/	-men	.	4B/	.	.	.	2.dd\	.
.	.	.	4c/	.	4A/	.	.	.
2rBB	.	.	2d\	.	4B/	.	.	.
.	.	.	.	.	4c/	.	4cc\	.
!	!	!	!	!	!LO:TX:t=P:problem=kreska pseudotaktowa	!	!	!
2.GG/	A-	.	2G/	.	2d\	.	4b\	.
.	.	.	.	.	.	.	4a\	.
=116-	=116-	=116-	=116-	=116-	=116-	=116-	=116-	=116-
.	.	.	2.D/	-men	2G/	.	1b\	.
4AA/	.	.	.	.	.	.	.	.
4BB/	.	.	.	.	1d\	.	.	.
4C/	.	.	4E/	.	.	.	.	.
!	!	!	!	!	!	!	!LO:TX:t=P:problem=kreska pseudotaktowa	!
2D/	.	.	4F/	a-	.	.	1a\	.
.	.	.	4G/	.	.	.	.	.
!LO:TX:t=P:problem=kreska pseudotaktowa	!	!	!LO:TX:t=P:problem=kreska pseudotaktowa	!	!	!	!	!
2AA/	.	.	2A\	.	2c\	.	.	.
=117-	=117-	=117-	=117-	=117-	=117-	=117-	=117-	=117-
2C/	.	.	2E/	.	2e\	.	2.g\	.
1GG/	.	.	2.G/	.	4d\	.	.	.
.	.	.	.	.	4c\	.	4a\	.
.	.	.	.	.	4B/	.	4b\	.
.	.	.	4A\	.	4A/	.	4cc\	.
2.G\	.	.	4B\	.	2G/	.	2dd\	.
.	.	.	4c\	.	.	.	.	.
=118-	=118-	=118-	=118-	=118-	=118-	=118-	=118-	=118-
.	.	.	2d\	.	2.g\	.	2g/	.
4F\	.	.	.	.	.	.	.	.
4E\	.	.	2G/	.	.	.	2.cc\	.
4D\	.	.	.	.	4f\	.	.	.
!LO:TX:t=P:problem=kreska pseudotaktowa	!	!	!	!	!	!	!	!
1C/	.	.	2.c\	.	4e\	.	.	.
.	.	.	.	.	4d\	.	4b\	.
!	!	!	!	!	!LO:TX:t=P:problem=kreska pseudotaktowa	!	!	!
.	.	.	.	.	2c\	.	4a\	.
.	.	.	4B\	.	.	.	4g\	.
=119-	=119-	=119-	=119-	=119-	=119-	=119-	=119-	=119-
!LO:PB:g=original	!	!	!	!	!	!	!	!
2.D/	.	.	4A/	.	2.f\	.	4fny/	.
.	.	.	4G/	.	.	.	4e/	.
!	!	!	!	!	!	!	!LO:TX:t=P:problem=kreska pseudotaktowa	!
.	.	.	1F/	.	.	.	2d/	.
!LO:TX:t=P:problem=kreska pseudotaktowa	!	!	!	!	!	!	!	!
4C/	.	.	.	.	4e\	.	.	.
4BB/	.	.	.	.	4d\	.	2.dd\	.
4AA/	.	.	.	.	4c\	.	.	.
1GG/	.	.	2.G/	.	2d\	.	.	.
.	.	.	.	.	.	.	4cc\	.
=120-	=120-	=120-	=120-	=120-	=120-	=120-	=120-	=120-
.	.	.	.	.	0.G/	.	4b\	.
.	.	.	4F/	.	.	.	4a\	.
2.G\	.	.	4E/	.	.	.	2g\	.
.	.	.	4D/	.	.	.	.	.
.	.	.	2C/	.	.	.	2.g/	.
4F\	.	.	.	.	.	.	.	.
4E\	.	.	2.c\	.	.	.	.	.
!LO:TX:t=P:problem=kreska pseudotaktowa	!	!	!	!	!	!	!	!
4D\	.	.	.	.	.	.	4f/	.
=121-	=121-	=121-	=121-	=121-	=121-	=121-	=121-	=121-
2C/	.	.	.	.	.	.	4e/	.
.	.	.	4B\	.	.	.	4d/	.
!LO:TX:t=P:problem=kreska pseudotaktowa	!	!	!	!	!	!	!	!
2E\	-men	.	4A\	.	.	.	1g\	.
.	.	.	4G/	.	.	.	.	.
1D\	A-	.	1A\	.	[1d\;l	-men.	.	.
!	!	!	!	!	!	!	!LO:TX:t=P:problem=♯above	!
.	.	.	.	.	.	.	2f#X/	.
=122-	=122-	=122-	=122-	=122-	=122-	=122-	=122-	=122-
0GG/;	-men.	.	0B\;	-men.	0d\]	.	0g\;	-men.
==	==	==	==	==	==	==	==	==
*-	*-	*-	*-	*-	*-	*-	*-	*-
!!!RDF**kern: > = above
!!!RDF**kern: < = below
!!!RDF**kern: l = terminal long
!!!system-decoration: [(s1,s2,s3,s4)]
!!!EED: Andrzej Borzym
!!!EEV: 2021-03-18
!!!ENC: Andrzej Borzym
!!!END: 2021-03-02
